btlcenter/img/icon_document.svg

<svg fill="none" height="50" viewBox="0 0 50 50" width="50" xmlns="http://www.w3.org/2000/svg"><g fill="#000"><path d="m5.81889 5.83034v43.31156c0 .4601.37294.833.83301.833h31.6508c.4597 0 .8327-.3729.8327-.833v-34.9822c0-.0185-.009-.0343-.0107-.0525-.0041-.073-.0185-.1451-.0425-.214-.0093-.0268-.0158-.0525-.0275-.0786-.0404-.0906-.0967-.1733-.1667-.2439l-8.329-8.32909c-.0707-.07033-.1537-.12659-.245-.16674-.025-.01063-.0504-.01955-.0765-.02744-.0696-.02402-.142-.03843-.2158-.04323-.0141.0024-.0305-.00652-.048-.00652h-23.3218c-.46007 0-.83301.37259-.83301.83266zm30.47301 7.49636h-5.4856v-5.48554zm-28.80734-6.66335h21.65614v7.49635c0 .4598.3729.8327.8326.8327h7.4964v33.3168h-29.98514z"/><path d="m40.8014 43.3115v1.6657h2.4987c.46 0 .833-.3726.833-.8327v-43.311494c0-.460074-.373-.833006-.833-.833006h-31.6508c-.4601 0-.833.372932-.833.833006v2.498674h1.666v-1.66601h29.9847v41.64583z"/><path d="m12.4823 16.6584h19.9897v1.6656h-19.9897z"/><path d="m12.4823 11.6608h6.6633v1.666h-6.6633z"/><path d="m12.4823 21.6558h13.3267v1.666h-13.3267z"/><path d="m27.4747 21.6558h4.9973v1.666h-4.9973z"/><path d="m12.4823 26.6531h19.9897v1.6661h-19.9897z"/><path d="m12.4823 36.6481h19.9897v1.666h-19.9897z"/><path d="m19.9783 31.6508h12.4937v1.6657h-12.4937z"/><path d="m12.4823 31.6508h5.8303v1.6657h-5.8303z"/><path d="m12.4823 41.6459h3.3317v1.6657h-3.3317z"/><path d="m17.4796 41.6459h14.9924v1.6657h-14.9924z"/></g></svg>

<svg width="50" height="50" viewBox="0 0 50 50" fill="none" xmlns="http://www.w3.org/2000/svg">
<path d="M5.81889 5.83034V49.1419C5.81889 49.602 6.19183 49.9749 6.6519 49.9749H38.3027C38.7624 49.9749 39.1354 49.602 39.1354 49.1419V14.1597C39.1354 14.1412 39.1264 14.1254 39.1247 14.1072C39.1206 14.0342 39.1062 13.9621 39.0822 13.8932C39.0729 13.8664 39.0664 13.8407 39.0547 13.8146C39.0143 13.724 38.958 13.6413 38.888 13.5707L30.559 5.24161C30.4883 5.17128 30.4053 5.11502 30.314 5.07487C30.289 5.06424 30.2636 5.05532 30.2375 5.04743C30.1679 5.02341 30.0955 5.009 30.0217 5.0042C30.0076 5.0066 29.9912 4.99768 29.9737 4.99768H6.6519C6.19183 4.99768 5.81889 5.37027 5.81889 5.83034ZM36.2919 13.3267H30.8063V7.84116L36.2919 13.3267ZM7.48456 6.66335H29.1407V14.1597C29.1407 14.6195 29.5136 14.9924 29.9733 14.9924H37.4697V48.3092H7.48456V6.66335Z" fill="black"/>
<path d="M40.8014 43.3115V44.9772H43.3001C43.7601 44.9772 44.1331 44.6046 44.1331 44.1445V0.833006C44.1331 0.372932 43.7601 0 43.3001 0H11.6493C11.1892 0 10.8163 0.372932 10.8163 0.833006V3.33168H12.4823V1.66567H42.467V43.3115H40.8014Z" fill="black"/>
<path d="M12.4823 16.6584H32.472V18.324H12.4823V16.6584Z" fill="black"/>
<path d="M12.4823 11.6608H19.1456V13.3268H12.4823V11.6608Z" fill="black"/>
<path d="M12.4823 21.6558H25.809V23.3218H12.4823V21.6558Z" fill="black"/>
<path d="M27.4747 21.6558H32.472V23.3218H27.4747V21.6558Z" fill="black"/>
<path d="M12.4823 26.6531H32.472V28.3192H12.4823V26.6531Z" fill="black"/>
<path d="M12.4823 36.6481H32.472V38.3141H12.4823V36.6481Z" fill="black"/>
<path d="M19.9783 31.6508H32.472V33.3165H19.9783V31.6508Z" fill="black"/>
<path d="M12.4823 31.6508H18.3126V33.3165H12.4823V31.6508Z" fill="black"/>
<path d="M12.4823 41.6459H15.814V43.3116H12.4823V41.6459Z" fill="black"/>
<path d="M17.4796 41.6459H32.472V43.3116H17.4796V41.6459Z" fill="black"/>
</svg>
